X:1
T:Title
%%score { ( 1 3 ) | ( 2 4 ) }
L:1/8
Q:1/4=85
M:2/4
K:Ab
V:1 treble nm="Grand Piano"
V:3 treble 
V:2 bass 
V:4 bass 
V:1
 [CE][CF] [CG][CA] | [CB][CA] [CG][CA] | [CF][CA] [CF][CA] | [DG]4 | [DE][DF] [DG][DA] | %5
w: Florence~W.~Williams * * *|||||
 [Dc][DB] [DA][DG] | [DF][DA] [DF][DG] | [CE]4 | [CE][Ec] [Ec][Ec] | [=DB][Dc] [DB][DF] | %10
w: |||||
 [DE][DB] [Ec][DB] | [CA]4 | [CE][CE] [_C=D][=CE] | [CA][A,CG] [DG][B,DF] | [DE][DB] [DE][DB] | %15
w: |||||
 A4 |] %16
w: |
V:2
 A,,E, A,E, | A,,E, A,E, | A,,E, A,E, | B,,E, B,E, | E,,E, G,E, | E,,E, G,E, | E,,E, B,E, | %7
 A,,E, A,E, | A,,E, A,E, | B,,F, A,F, | E,,E, G,E, | A,,E, A,E, | A,,E, A,E, | A,,E, D,F, | %14
 E,,E, G,E, | E,F, E,2 |] %16
V:3
 x4 | x4 | x4 | x4 | x4 | x4 | x4 | x4 | x4 | x4 | x4 | x4 | x4 | x4 | x4 | CD C2 |] %16
V:4
 x4 | x4 | x4 | x4 | x4 | x4 | x4 | x4 | x4 | x4 | x4 | x4 | x4 | x4 | x4 | A,,4 |] %16

